src/assets/img/networks/karura.svg

<?xml version="1.0" encoding="UTF-8"?>
<svg fill="none" viewBox="0 0 200 200" xmlns="http://www.w3.org/2000/svg">
<circle cx="100" cy="100" r="95" fill="#1B1B1B"/>
<path d="m128.9 48-33.801 30.703c-3.4996 3.1844-8.0535 4.9451-12.781 4.9668l-10.075 0.0218-0.0326-35.692h-18.216v102h9.9337c5.5538 0 10.738-2.945 13.455-7.782 0.0218-0.032 0.0326-0.065 0.0544-0.087 1.8041-3.239 2.7062-9.64 2.5323-14.009-0.3913-9.988-1.9998-12.586-1.9998-12.586-0.3369 6.847-7.4883 7.217-7.4883 7.217 5.0864-4.858 2.3149-8.532 2.3149-8.532-9.0099 6.413-11.26-0.435-11.434-1.054 0.2826 0.239 2.8475 2.38 7.7165-4.293 5.1517-7.054 12.02-18.813 16.39-21.835 4.38-3.0323 8.5317-2.7823 8.5317-2.7823s2.3911-3.2388 8.7164-5.9341c6.325-2.6737 10.379 1.2498 10.379 1.2498-6.466 5.2169-15.248 13.781-15.737 26.051-0.3912 9.934 21.019 26.976 17.259 52.147 2.25-5.717 3.152-11.445 2.38-18.531-0.619-5.717-4.304-17.661-4.304-17.661l20.563 28.41h22.737l-44.441-61.048 44.441-40.941h-27.095z" fill="url(#b)"/>
<path d="m87.486 91.919c-1.4346 2.3802-1.4346 3.1084-1.4346 3.1084s5.0212-0.8478 6.3798-6.8145c0.0108 0-3.2062 0.826-4.9452 3.7061z" fill="url(#a)"/>
<defs>
<linearGradient id="b" x1="209.62" x2="114.03" y1="191.38" y2=".57289" gradientUnits="userSpaceOnUse">
<stop stop-color="#E40C5B" offset="0"/>
<stop stop-color="#FF4C3B" offset="1"/>
</linearGradient>
<linearGradient id="a" x1="95.785" x2="89.877" y1="97.114" y2="85.233" gradientUnits="userSpaceOnUse">
<stop stop-color="#E40C5B" offset="0"/>
<stop stop-color="#FF4C3B" offset="1"/>
</linearGradient>
</defs>
</svg>

<svg width="200" height="200" viewBox="0 0 200 200" fill="none" xmlns="http://www.w3.org/2000/svg">
<circle cx="100" cy="100" r="95" fill="#1B1B1B"/>
<path d="M128.905 48L95.1043 78.7033C91.6047 81.8877 87.0508 83.6484 82.3231 83.6701L72.2481 83.6919L72.2155 48H54V150H63.9337C69.4875 150 74.6717 147.055 77.3888 142.218C77.4106 142.186 77.4214 142.153 77.4432 142.131C79.2473 138.892 80.1494 132.491 79.9755 128.122C79.5842 118.134 77.9757 115.536 77.9757 115.536C77.6388 122.383 70.4874 122.753 70.4874 122.753C75.5738 117.895 72.8023 114.221 72.8023 114.221C63.7924 120.634 61.5427 113.786 61.3688 113.167C61.6514 113.406 64.2163 115.547 69.0853 108.874C74.237 101.82 81.1058 90.0607 85.4749 87.0393C89.8549 84.007 94.0066 84.257 94.0066 84.257C94.0066 84.257 96.3977 81.0182 102.723 78.3229C109.048 75.6492 113.102 79.5727 113.102 79.5727C106.636 84.7896 97.854 93.3539 97.3649 105.624C96.9737 115.558 118.384 132.6 114.624 157.771C116.874 152.054 117.776 146.326 117.004 139.24C116.385 133.523 112.7 121.579 112.7 121.579L133.263 149.989H156L111.559 88.9413L156 48H128.905Z" fill="url(#paint0_linear)"/>
<path d="M87.4855 91.9192C86.0509 94.2994 86.0509 95.0276 86.0509 95.0276C86.0509 95.0276 91.0721 94.1798 92.4307 88.2131C92.4415 88.2131 89.2245 89.0391 87.4855 91.9192Z" fill="url(#paint1_linear)"/>
<defs>
<linearGradient id="paint0_linear" x1="209.623" y1="191.383" x2="114.031" y2="0.572889" gradientUnits="userSpaceOnUse">
<stop stop-color="#E40C5B"/>
<stop offset="1" stop-color="#FF4C3B"/>
</linearGradient>
<linearGradient id="paint1_linear" x1="95.7846" y1="97.1142" x2="89.8771" y2="85.2333" gradientUnits="userSpaceOnUse">
<stop stop-color="#E40C5B"/>
<stop offset="1" stop-color="#FF4C3B"/>
</linearGradient>
</defs>
</svg>
